src/images/sprite/social-media.svg

<svg width="151" height="150" viewBox="0 0 151 150" fill="currentColor">
<path fill-rule="evenodd" clip-rule="evenodd" d="M100.571 98.6999H74.2461C73.2711 98.6999 72.5211 97.9499 72.5211 96.9749C72.5211 96.0749 73.2711 95.2499 74.2461 95.2499H100.571V82.4999H96.5211H96.4461H96.3711H96.2961H96.1461L95.9961 82.4249H95.8461H95.6961H95.6211L95.4711 82.3499H95.3211L95.1711 82.2749H95.0961H94.9461L94.7961 82.1999L94.7211 82.1249H94.5711C94.4961 82.0499 94.4211 82.0499 94.3461 81.9749C94.1961 81.9749 94.0461 81.8999 93.9711 81.8249C92.2461 80.9249 91.1211 79.1249 91.1211 77.0249V49.9499C91.1211 48.2249 91.8711 46.7249 93.0711 45.7499L93.2211 45.6749L93.2961 45.5999L93.3711 45.5249H93.4461L93.5211 45.4499L93.5961 45.3749H93.6711V45.2999H93.7461L93.8211 45.2249H93.8961L93.9711 45.1499H94.0461L94.1211 45.0749C94.8711 44.6999 95.6961 44.4749 96.5211 44.4749H100.571V41.9249C100.571 39.8999 98.9961 38.3249 96.9711 38.3249H54.2211C52.1961 38.3249 50.6211 39.8999 50.6211 41.9249V51.2999H76.9461C77.9211 51.2999 78.6711 52.0499 78.6711 53.0249C78.6711 53.9249 77.9211 54.7499 76.9461 54.7499H50.6211V67.4999H54.6711H54.7461H54.8211H54.8961H54.9711H55.0461L55.1961 67.5749H55.3461H55.4211H55.4961H55.5711H55.6461L55.7211 67.6499H55.7961H55.8711L56.0211 67.7249H56.0961H56.2461V67.7999H56.3961L56.4711 67.8749H56.5461H56.6211L56.7711 67.9499L56.8461 68.0249H56.9961V68.0999H57.0711H57.1461L57.2211 68.1749L57.3711 68.2499L57.4461 68.3249L57.5961 68.3999H57.6711L57.7461 68.4749L57.8211 68.5499L57.8961 68.6249L57.9711 68.6999L58.0461 68.7749L58.1961 68.8499H58.2711V68.9249H58.3461V68.9999H58.4211V69.0749C58.4961 69.1499 58.5711 69.2249 58.7211 69.2999V69.3749L58.8711 69.5249L58.9461 69.5999L59.0211 69.6749V69.7499L59.0961 69.8999L59.1711 69.9749L59.2461 70.0499C59.2461 70.1249 59.3211 70.1999 59.3211 70.2749L59.3961 70.3499L59.4711 70.4249V70.4999L59.5461 70.5749V70.6499L59.6211 70.7249V70.8749L59.6961 70.9499C59.6961 71.0249 59.7711 71.0999 59.7711 71.0999V71.1749V71.2499H59.8461V71.3249V71.3999V71.4749V71.5499C59.9211 71.5499 59.9211 71.6249 59.9211 71.6999L59.9961 71.8499V71.9999V72.1499V72.2249L60.0711 72.3749V72.5249V72.6749V72.8249V72.9749V96.8249V100.05C60.0711 100.35 60.0711 100.65 59.9961 100.875C59.9961 101.025 59.9961 101.175 59.9211 101.25C59.9211 101.4 59.8461 101.55 59.8461 101.7L59.7711 101.775V101.85V101.925L59.6961 102.075C59.6961 102.15 59.6211 102.225 59.6211 102.3L59.5461 102.375V102.45L59.4711 102.525L59.3961 102.6V102.675L59.3211 102.75V102.825V102.9H59.2461V102.975L59.1711 103.05V103.125H59.0961V103.2H59.0211V103.275C58.9461 103.35 58.9461 103.35 58.9461 103.425L58.7961 103.5L58.7211 103.575V103.65C57.7461 104.775 56.2461 105.525 54.6711 105.525H50.6211V108.075C50.6211 110.1 52.1961 111.675 54.2211 111.675H96.9711C98.9961 111.675 100.571 110.1 100.571 108.075V98.6999ZM59.2461 70.0499C59.2461 70.1249 59.3211 70.1999 59.3211 70.2749L59.2461 70.0499ZM104.096 138.975H47.0961C42.6711 138.975 39.0711 135.375 39.0711 131.025V121.5V105.525H27.5211H27.3711L27.2211 105.45H27.1461H26.9961H26.8461H26.6961L26.5461 105.375H26.4711H26.3961H26.3211L26.1711 105.3C23.8461 104.7 22.1211 102.6 22.1211 100.05V72.9749C22.1211 69.9749 24.5211 67.4999 27.5211 67.4999H39.0711V28.4999V18.9749C39.0711 14.6249 42.6711 11.0249 47.0961 11.0249H104.096C108.521 11.0249 112.121 14.6249 112.121 18.9749V28.4249V28.4999V28.5749V44.4749H123.671C126.671 44.4749 129.071 46.9499 129.071 49.9499V77.0249C129.071 80.0249 126.671 82.4999 123.671 82.4999H112.121V121.5V131.025C112.121 135.375 108.521 138.975 104.096 138.975ZM40.7961 102.075H45.3711L42.4461 99.1499L42.3711 99.0749L32.8461 89.5499L25.4961 96.9749V100.05V100.125V100.2V100.275V100.35L25.5711 100.425V100.5V100.575V100.65L25.6461 100.725V100.8V100.875H25.7211V100.95V101.025L25.7961 101.1V101.175H25.8711V101.25L25.9461 101.325L26.0211 101.4L26.0961 101.475L26.1711 101.55V101.625H26.2461L26.3211 101.7L26.3961 101.775H26.4711L26.5461 101.85H26.6211L26.6961 101.925H26.7711H26.8461V102H26.9211H26.9961H27.0711L27.1461 102.075H27.2211H27.2961H27.3711H27.4461H27.5211H40.7961ZM94.5711 77.3249V77.3999V77.4749V77.5499V77.6249C94.6461 77.6249 94.6461 77.6999 94.6461 77.7749V77.8499H94.7211V77.9249V77.9999H94.7961V78.0749L94.8711 78.1499V78.2249H94.9461V78.2999L95.0211 78.3749C95.0961 78.4499 95.0961 78.5249 95.1711 78.5249V78.5999C95.5461 78.8999 96.0711 79.0499 96.5211 79.0499H102.296H102.371H110.396H110.471H123.671C124.796 79.0499 125.696 78.1499 125.696 77.0249V49.9499C125.696 48.8249 124.796 47.9249 123.671 47.9249H96.5211C95.6211 47.9249 94.7961 48.5999 94.5711 49.4249V49.4999V49.5749V49.6499V49.7249V49.7999H94.4961V49.8749V49.9499V77.0249V77.0999V77.1749H94.5711V77.2499V77.3249ZM42.5211 105.525V119.775H108.671V82.4999H104.021V96.8999V96.9749V97.0499V108.075C104.021 111.975 100.871 115.125 96.9711 115.125H54.2211C50.3211 115.125 47.1711 111.975 47.1711 108.075V105.525H42.5211ZM42.5211 123.225V131.025C42.5211 133.5 44.5461 135.6 47.0961 135.6H104.096C106.646 135.6 108.671 133.5 108.671 131.025V123.225H42.5211ZM104.021 44.4749H108.671V30.2249H42.5211V67.4999H47.1711V41.9249C47.1711 38.0249 50.3211 34.8749 54.2211 34.8749H96.9711C100.871 34.8749 104.021 38.0249 104.021 41.9249V44.4749ZM108.671 26.7749V18.9749C108.671 16.4999 106.646 14.3999 104.096 14.3999H89.6961V15.8999C89.6961 18.6749 87.4461 20.8499 84.7461 20.8499H66.4461C63.7461 20.8499 61.4961 18.6749 61.4961 15.8999V14.3999H47.0961C44.5461 14.3999 42.5211 16.4999 42.5211 18.9749V26.7749H108.671ZM64.9461 14.3999V15.8999C64.9461 16.7999 65.6211 17.4749 66.4461 17.4749H84.7461C85.5711 17.4749 86.2461 16.7999 86.2461 15.8999V14.3999H64.9461ZM81.9711 131.1H68.6211C67.7211 131.1 66.9711 130.35 66.9711 129.375C66.9711 128.475 67.7211 127.725 68.6211 127.725H81.9711C82.9461 127.725 83.6961 128.475 83.6961 129.375C83.6961 130.35 82.9461 131.1 81.9711 131.1ZM50.0961 102.075H54.6711C55.7211 102.075 56.6961 101.175 56.6961 100.05V97.5749L51.5211 92.3999L46.0461 97.9499L49.1961 101.1L49.7961 101.7H49.8711V101.775C49.9461 101.85 50.0211 101.925 50.0961 102.075ZM56.6961 92.6999V72.9749C56.6961 72.5999 56.6211 72.2999 56.4711 72.0749C56.3961 71.9999 56.3961 71.9999 56.3961 71.9249L56.3211 71.8499V71.7749H56.2461V71.6999L56.1711 71.6249V71.5499H56.0961L56.0211 71.4749L55.9461 71.3999L55.8711 71.3249H55.7961V71.2499H55.7211L55.6461 71.1749H55.5711V71.0999H55.4961C55.2711 71.0249 54.9711 70.9499 54.6711 70.9499H27.5211C26.3961 70.9499 25.4961 71.8499 25.4961 72.9749V92.0999L31.6461 85.9499C32.3211 85.2749 33.4461 85.2749 34.0461 85.9499L43.6461 95.4749L50.3211 88.7999C50.9961 88.1249 52.1211 88.1249 52.7211 88.7999L56.6961 92.6999ZM94.5711 82.1249C94.4961 82.0499 94.4211 82.0499 94.3461 81.9749L94.5711 82.1249ZM44.0961 87.8999C40.4211 87.8999 37.4211 84.8999 37.4211 81.2249C37.4211 77.5499 40.4211 74.5499 44.0961 74.5499C47.7711 74.5499 50.7711 77.5499 50.7711 81.2249C50.7711 84.8999 47.7711 87.8999 44.0961 87.8999ZM44.0961 77.9249C42.2961 77.9249 40.7961 79.4249 40.7961 81.2249C40.7961 83.0249 42.2961 84.5249 44.0961 84.5249C45.8961 84.5249 47.3961 83.0249 47.3961 81.2249C47.3961 79.4249 45.8961 77.9249 44.0961 77.9249ZM119.846 57.2999H108.971C108.071 57.2999 107.246 56.5499 107.246 55.5749C107.246 54.6749 108.071 53.8499 108.971 53.8499H119.846C120.746 53.8499 121.496 54.6749 121.496 55.5749C121.496 56.5499 120.746 57.2999 119.846 57.2999ZM103.496 57.2999H100.421C99.4461 57.2999 98.6961 56.5499 98.6961 55.5749C98.6961 54.6749 99.4461 53.8499 100.421 53.8499H103.496C104.471 53.8499 105.221 54.6749 105.221 55.5749C105.221 56.5499 104.471 57.2999 103.496 57.2999ZM119.846 65.1749H117.071C116.096 65.1749 115.346 64.4249 115.346 63.5249C115.346 62.5499 116.096 61.7999 117.071 61.7999H119.846C120.746 61.7999 121.496 62.5499 121.496 63.5249C121.496 64.4249 120.746 65.1749 119.846 65.1749ZM110.096 65.1749H100.421C99.4461 65.1749 98.6961 64.4249 98.6961 63.5249C98.6961 62.5499 99.4461 61.7999 100.421 61.7999H110.096C110.996 61.7999 111.821 62.5499 111.821 63.5249C111.821 64.4249 110.996 65.1749 110.096 65.1749ZM119.846 73.1249H111.446C110.546 73.1249 109.721 72.3749 109.721 71.3999C109.721 70.4999 110.546 69.6749 111.446 69.6749H119.846C120.746 69.6749 121.496 70.4999 121.496 71.3999C121.496 72.3749 120.746 73.1249 119.846 73.1249ZM104.321 73.1249H100.421C99.4461 73.1249 98.6961 72.3749 98.6961 71.3999C98.6961 70.4999 99.4461 69.6749 100.421 69.6749H104.321C105.221 69.6749 106.046 70.4999 106.046 71.3999C106.046 72.3749 105.221 73.1249 104.321 73.1249Z" fill="currentColor"/>
</svg>

<svg width="151" height="150" fill="currentColor"><path fill-rule="evenodd" clip-rule="evenodd" d="M100.571 98.7H74.246c-.975 0-1.725-.75-1.725-1.725 0-.9.75-1.725 1.725-1.725h26.325V82.5H96.146l-.15-.075h-.375l-.15-.075h-.15l-.15-.075H94.946l-.15-.075-.075-.075h-.15c-.075-.075-.15-.075-.225-.15-.15 0-.3-.075-.375-.15-1.725-.9-2.85-2.7-2.85-4.8V49.95c0-1.725.75-3.225 1.95-4.2l.15-.075.075-.075.075-.075h.075l.075-.075.075-.075h.075V45.3h.075l.075-.075h.075l.075-.075h.075l.075-.075c.75-.375 1.575-.6 2.4-.6h4.05v-2.55c0-2.025-1.575-3.6-3.6-3.6h-42.75c-2.025 0-3.6 1.575-3.6 3.6V51.3h26.325c.975 0 1.725.75 1.725 1.725 0 .9-.75 1.725-1.725 1.725H50.621V67.5H55.046l.15.075h.45l.075.075h.15l.15.075H56.246v.075h.15l.075.075h.15l.15.075.075.075h.15v.075h.15l.075.075.15.075.075.075.15.075h.075l.075.075.075.075.075.075.075.075.075.075.15.075h.075v.075h.075V69h.075v.075c.075.075.15.15.3.225v.075l.15.15.075.075.075.075v.075l.075.15.075.075.075.075c0 .075.075.15.075.225l.075.075.075.075v.075l.075.075v.075l.075.075v.15l.075.075c0 .075.075.15.075.15v.15h.075v.3c.075 0 .075.075.075.15l.075.15v.375l.075.15V100.05c0 .3 0 .6-.075.825 0 .15 0 .3-.075.375 0 .15-.075.3-.075.45l-.075.075v.15l-.075.15c0 .075-.075.15-.075.225l-.075.075v.075l-.075.075-.075.075v.075l-.075.075v.15h-.075v.075l-.075.075v.075h-.075v.075h-.075v.075c-.075.075-.075.075-.075.15l-.15.075-.075.075v.075c-.975 1.125-2.475 1.875-4.05 1.875h-4.05v2.55c0 2.025 1.575 3.6 3.6 3.6h42.75c2.025 0 3.6-1.575 3.6-3.6V98.7zM59.246 70.05c0 .075.075.15.075.225l-.075-.225zm44.85 68.925h-57c-4.425 0-8.025-3.6-8.025-7.95v-25.5H27.371l-.15-.075h-.525l-.15-.075H26.321l-.15-.075a5.401 5.401 0 0 1-4.05-5.25V72.975c0-3 2.4-5.475 5.4-5.475h11.55V18.975c0-4.35 3.6-7.95 8.025-7.95h57c4.425 0 8.025 3.6 8.025 7.95v25.5h11.55c3 0 5.4 2.475 5.4 5.475v27.075c0 3-2.4 5.475-5.4 5.475h-11.55v48.525c0 4.35-3.6 7.95-8.025 7.95zm-63.3-36.9h4.575l-2.925-2.925-.075-.075-9.525-9.525-7.35 7.425V100.35l.075.075V100.65l.075.075v.15h.075v.15l.075.075v.075h.075v.075l.075.075.075.075.075.075.075.075v.075h.075l.075.075.075.075h.075l.075.075h.075l.075.075h.15V102H27.071l.075.075h13.65zm53.775-24.75v.3c.075 0 .075.075.075.15v.075h.075V78h.075v.075l.075.075v.075h.075v.075l.075.075c.075.075.075.15.15.15v.075c.375.3.9.45 1.35.45h27.15c1.125 0 2.025-.9 2.025-2.025V49.95c0-1.125-.9-2.025-2.025-2.025h-27.15c-.9 0-1.725.675-1.95 1.5v.375h-.075V77.175h.075v.15zm-52.05 28.2v14.25h66.15V82.5h-4.65v25.575c0 3.9-3.15 7.05-7.05 7.05h-42.75c-3.9 0-7.05-3.15-7.05-7.05v-2.55h-4.65zm0 17.7v7.8c0 2.475 2.025 4.575 4.575 4.575h57c2.55 0 4.575-2.1 4.575-4.575v-7.8h-66.15zm61.5-78.75h4.65v-14.25h-66.15V67.5h4.65V41.925c0-3.9 3.15-7.05 7.05-7.05h42.75c3.9 0 7.05 3.15 7.05 7.05v2.55zm4.65-17.7v-7.8c0-2.475-2.025-4.575-4.575-4.575h-14.4v1.5c0 2.775-2.25 4.95-4.95 4.95h-18.3c-2.7 0-4.95-2.175-4.95-4.95v-1.5h-14.4c-2.55 0-4.575 2.1-4.575 4.575v7.8h66.15zM64.946 14.4v1.5c0 .9.675 1.575 1.5 1.575h18.3c.825 0 1.5-.675 1.5-1.575v-1.5h-21.3zm17.025 116.7h-13.35c-.9 0-1.65-.75-1.65-1.725 0-.9.75-1.65 1.65-1.65h13.35c.975 0 1.725.75 1.725 1.65 0 .975-.75 1.725-1.725 1.725zm-31.875-29.025h4.575c1.05 0 2.025-.9 2.025-2.025v-2.475L51.521 92.4l-5.475 5.55 3.15 3.15.6.6h.075v.075c.075.075.15.15.225.3zm6.6-9.375V72.975c0-.375-.075-.675-.225-.9-.075-.075-.075-.075-.075-.15l-.075-.075v-.075h-.075V71.7l-.075-.075v-.075h-.075l-.075-.075-.075-.075-.075-.075h-.075v-.075h-.075l-.075-.075h-.075V71.1h-.075a2.696 2.696 0 0 0-.825-.15h-27.15c-1.125 0-2.025.9-2.025 2.025V92.1l6.15-6.15c.675-.675 1.8-.675 2.4 0l9.6 9.525 6.675-6.675c.675-.675 1.8-.675 2.4 0l3.975 3.9zm37.875-10.575c-.075-.075-.15-.075-.225-.15l.225.15zM44.096 87.9c-3.675 0-6.675-3-6.675-6.675s3-6.675 6.675-6.675 6.675 3 6.675 6.675-3 6.675-6.675 6.675zm0-9.975c-1.8 0-3.3 1.5-3.3 3.3 0 1.8 1.5 3.3 3.3 3.3 1.8 0 3.3-1.5 3.3-3.3 0-1.8-1.5-3.3-3.3-3.3zm75.75-20.625h-10.875c-.9 0-1.725-.75-1.725-1.725 0-.9.825-1.725 1.725-1.725h10.875c.9 0 1.65.825 1.65 1.725 0 .975-.75 1.725-1.65 1.725zm-16.35 0h-3.075c-.975 0-1.725-.75-1.725-1.725 0-.9.75-1.725 1.725-1.725h3.075c.975 0 1.725.825 1.725 1.725 0 .975-.75 1.725-1.725 1.725zm16.35 7.875h-2.775c-.975 0-1.725-.75-1.725-1.65 0-.975.75-1.725 1.725-1.725h2.775c.9 0 1.65.75 1.65 1.725 0 .9-.75 1.65-1.65 1.65zm-9.75 0h-9.675c-.975 0-1.725-.75-1.725-1.65 0-.975.75-1.725 1.725-1.725h9.675c.9 0 1.725.75 1.725 1.725 0 .9-.825 1.65-1.725 1.65zm9.75 7.95h-8.4c-.9 0-1.725-.75-1.725-1.725 0-.9.825-1.725 1.725-1.725h8.4c.9 0 1.65.825 1.65 1.725 0 .975-.75 1.725-1.65 1.725zm-15.525 0h-3.9c-.975 0-1.725-.75-1.725-1.725 0-.9.75-1.725 1.725-1.725h3.9c.9 0 1.725.825 1.725 1.725 0 .975-.825 1.725-1.725 1.725z"/></svg>
